static/assets/images/exchanges/orca.svg

<svg width="256" height="256" viewBox="0 0 256 256" fill="none" xmlns="http://www.w3.org/2000/svg">
<path d="M128 256C198.692 256 256 198.692 256 128C256 57.3075 198.692 0 128 0C57.3075 0 0 57.3075 0 128C0 198.692 57.3075 256 128 256Z" fill="#FFD15C"/>
<path d="M95.8186 75.7369C90.3624 76.5227 93.4053 81.1851 93.4053 81.1851L93.2479 82.4948C101.065 95.9581 113.971 110.102 127.139 119.532C136.845 126.447 144.084 136.662 147.599 148.292C151.062 159.765 150.432 171.657 145.921 180.877C140.465 191.983 130.129 198.426 116.909 199.055C103.74 199.683 88.1065 194.497 70.4265 183.653C70.2691 184.072 70.0592 184.491 69.8494 184.858C85.1686 200.626 102.901 210.056 121.316 212.204C139.94 214.404 159.036 209.165 175.195 197.588C174.775 197.588 174.461 197.483 174.198 197.326C228.55 152.483 139.573 69.5029 95.8186 75.7369Z" fill="white"/>
<path d="M236.996 136.034C236.944 135.038 236.891 133.834 236.682 132.419C236 126.919 233.796 118.484 227.396 109.526L226.451 108.269C226.399 108.164 226.294 108.059 226.241 107.955C225.979 107.588 225.664 107.221 225.402 106.854L225.35 106.802C225.035 106.435 224.72 106.016 224.405 105.65C224.353 105.545 224.248 105.492 224.195 105.388C223.933 105.073 223.618 104.707 223.356 104.392L223.251 104.288C222.936 103.921 222.622 103.607 222.307 103.24L222.097 103.03C221.835 102.716 221.572 102.454 221.31 102.192C221.257 102.14 221.205 102.087 221.205 102.035L220.103 100.935C219.841 100.673 219.579 100.411 219.316 100.201L219.159 100.044C218.844 99.7823 218.582 99.5204 218.267 99.2584L218.11 99.1013C217.847 98.8917 217.585 98.6822 217.375 98.4726L217.218 98.3155C216.956 98.0535 216.641 97.844 216.378 97.6345L216.221 97.4773C216.011 97.2677 215.749 97.1106 215.539 96.901C215.487 96.8487 215.382 96.7963 215.329 96.7439C215.067 96.5343 214.805 96.3248 214.542 96.1676C214.49 96.1152 214.437 96.0629 214.385 96.0629L213.755 95.5914C213.703 95.539 213.598 95.4866 213.545 95.4342C213.283 95.2771 213.073 95.1199 212.811 94.9104C212.758 94.858 212.706 94.8056 212.601 94.8056C212.391 94.7008 212.234 94.5437 212.076 94.4389C211.972 94.3865 211.919 94.3341 211.814 94.2817C211.604 94.1769 211.394 94.0198 211.237 93.915C211.132 93.8626 211.027 93.8102 210.975 93.7579C210.817 93.6531 210.712 93.6007 210.555 93.4959L210.24 93.3388C210.135 93.2864 209.978 93.1816 209.873 93.1292C209.716 93.0244 209.558 92.9197 209.348 92.8673C209.243 92.8149 209.191 92.7625 209.086 92.7101C208.981 92.6577 208.876 92.6053 208.719 92.553C208.666 92.5006 208.614 92.5006 208.561 92.4482C208.352 92.3434 208.089 92.1863 207.879 92.0815H207.827C206.41 89.5669 204.837 87.0524 203.158 84.5378C183.589 55.9348 162.132 42.0524 137.632 42H137.527C127.139 42 117.643 44.3574 109.721 46.6624C107.465 47.3434 105.104 48.0244 102.849 48.7579C97.0777 50.539 91.6215 52.2678 86.9523 53.0012C84.0144 53.4726 81.706 54.5728 80.0797 56.2491C78.6107 57.8207 77.7188 59.9686 77.4565 62.5879C76.9319 67.6694 78.7681 74.532 82.7553 82.39C90.7821 98.3155 106.154 115.865 121.893 127.128C123.729 128.438 125.408 129.852 126.982 131.424C126.667 131.476 126.352 131.529 125.985 131.581C113.656 133.362 107.203 146.563 104.632 153.74C103.95 155.626 105.787 157.303 107.675 156.622C115.335 154.055 130.916 149.864 139.678 155.26C139.73 155.26 139.835 155.207 139.887 155.207C141.461 163.065 140.727 170.818 137.736 176.843C133.802 184.753 126.3 189.416 116.594 189.887C105.157 190.463 91.0969 185.591 74.7809 175.428L74.5186 175.271C74.3612 175.219 74.2038 175.114 74.0989 175.009C86.7949 160.603 79.2927 138.391 76.3548 131.109C75.9876 130.166 74.6235 130.166 74.0989 131.057C67.2787 142.634 53.2186 141.744 53.481 155.522V155.469C42.7785 146.773 34.8042 158.35 21.4786 156.622C20.4293 156.464 19.6424 157.512 20.167 158.403C24.2066 165.37 37.7421 185.801 57.7305 183.496L56.7861 184.177L60.3536 188.106C77.8238 207.332 98.5991 218.857 120.476 221.424C123.624 221.79 126.772 222 129.919 222C148.229 222 166.434 215.871 182.068 204.241C200.01 190.935 212.444 172.128 217.113 151.331C218.687 144.416 219.316 137.501 219.054 130.638C222.989 129.066 227.291 130.795 230.701 133.1C230.753 133.1 230.753 133.152 230.806 133.152C230.963 133.257 231.068 133.362 231.225 133.414C231.278 133.414 231.278 133.467 231.33 133.467C231.75 133.729 232.117 134.043 232.485 134.305C232.537 134.357 232.642 134.41 232.694 134.462C232.799 134.515 232.852 134.619 232.957 134.672C233.062 134.724 233.114 134.829 233.219 134.881C233.271 134.934 233.376 134.986 233.429 135.091C233.586 135.196 233.744 135.353 233.849 135.458C233.901 135.51 233.954 135.562 234.006 135.562C234.111 135.667 234.216 135.772 234.321 135.824L234.478 135.981C234.583 136.086 234.688 136.139 234.793 136.243C234.845 136.296 234.898 136.296 234.898 136.348L235.265 136.715C235.318 136.767 235.37 136.767 235.37 136.82C235.632 137.029 235.947 137.081 236.209 137.081C236.524 137.134 237.049 136.662 236.996 136.034ZM174.198 197.378C174.461 197.536 174.775 197.588 175.195 197.64C159.036 209.27 139.94 214.456 121.316 212.256C102.849 210.108 85.1686 200.679 69.8494 184.91C70.0593 184.491 70.2691 184.125 70.4265 183.705C88.1065 194.549 103.74 199.736 116.909 199.107C130.129 198.478 140.465 191.983 145.921 180.929C150.485 171.709 151.062 159.87 147.599 148.345C144.084 136.715 136.845 126.499 127.139 119.584C113.918 110.155 101.065 96.0105 93.2479 82.5471L93.4053 81.2375C93.4053 81.2375 90.3624 76.5751 95.8186 75.7893C139.573 69.5029 228.55 152.483 174.198 197.378Z" fill="black"/>
<path d="M141.356 72.6985C139.835 70.5506 136.792 64.7881 146.235 64.7881C155.679 64.7881 170.054 75.4226 172.992 79.3516C172.1 81.7613 166.014 82.2852 162.971 82.0757C159.928 81.8661 154.787 81.3423 150.8 79.3516C146.865 77.4657 142.878 74.8463 141.356 72.6985Z" fill="white"/>
</svg>

<svg xmlns="http://www.w3.org/2000/svg" fill="none" viewBox="0 0 256 256"><path fill="#FFD15C" d="M128 256c70.692 0 128-57.308 128-128S198.692 0 128 0 0 57.308 0 128s57.308 128 128 128"/><path fill="#fff" d="M95.819 75.737c-5.457.786-2.414 5.448-2.414 5.448l-.157 1.31c7.817 13.463 20.723 27.607 33.891 37.037 9.706 6.915 16.945 17.13 20.46 28.76 3.463 11.473 2.833 23.365-1.678 32.585-5.456 11.106-15.792 17.549-29.012 18.178-13.169.628-28.803-4.558-46.482-15.402a8.6 8.6 0 0 1-.578 1.205c15.32 15.768 33.052 25.198 51.467 27.346 18.624 2.2 37.72-3.039 53.879-14.616-.42 0-.734-.105-.997-.262 54.352-44.843-34.625-127.823-78.38-121.59"/><path fill="#000" d="M236.996 136.034c-.052-.996-.105-2.2-.314-3.615-.682-5.5-2.886-13.935-9.286-22.893l-.945-1.257c-.052-.105-.157-.21-.21-.314-.262-.367-.577-.734-.839-1.101l-.052-.052c-.315-.367-.63-.786-.945-1.152-.052-.105-.157-.158-.21-.262-.262-.315-.577-.681-.839-.996l-.105-.104c-.315-.367-.629-.681-.944-1.048l-.21-.21c-.262-.314-.525-.576-.787-.838-.053-.052-.105-.105-.105-.157l-1.102-1.1a10 10 0 0 0-.787-.734l-.157-.157c-.315-.262-.577-.524-.892-.786l-.157-.157a9 9 0 0 1-.735-.628l-.157-.157c-.262-.263-.577-.472-.84-.681l-.157-.158c-.21-.21-.472-.366-.682-.576-.052-.052-.157-.105-.21-.157a7 7 0 0 0-.787-.576c-.052-.053-.105-.105-.157-.105l-.63-.472c-.052-.052-.157-.104-.21-.157a6 6 0 0 1-.734-.524c-.053-.052-.105-.104-.21-.104-.21-.105-.367-.262-.525-.367-.104-.052-.157-.105-.262-.157-.21-.105-.42-.262-.577-.367a1.1 1.1 0 0 1-.262-.157c-.158-.105-.263-.157-.42-.262l-.315-.157c-.105-.053-.262-.157-.367-.21-.157-.105-.315-.21-.525-.262-.105-.052-.157-.105-.262-.157s-.21-.105-.367-.157c-.053-.052-.105-.052-.158-.105-.209-.105-.472-.262-.682-.366h-.052c-1.417-2.515-2.99-5.03-4.669-7.544C183.589 55.935 162.132 42.052 137.632 42h-.105c-10.388 0-19.884 2.357-27.806 4.662-2.256.681-4.617 1.362-6.872 2.096-5.771 1.781-11.228 3.51-15.897 4.243-2.938.472-5.246 1.572-6.872 3.248-1.47 1.572-2.361 3.72-2.623 6.339-.525 5.081 1.311 11.944 5.298 19.802 8.027 15.926 23.399 33.475 39.138 44.738a40 40 0 0 1 5.089 4.296c-.315.052-.63.105-.997.157-12.329 1.781-18.782 14.982-21.353 22.159-.682 1.886 1.155 3.563 3.043 2.882 7.66-2.567 23.241-6.758 32.003-1.362.052 0 .157-.053.209-.053 1.574 7.858.84 15.611-2.151 21.636-3.934 7.91-11.436 12.573-21.142 13.044-11.437.576-25.497-4.296-41.813-14.459l-.262-.157a1.1 1.1 0 0 1-.42-.262c12.696-14.406 5.194-36.618 2.256-43.9-.367-.943-1.731-.943-2.256-.052-6.82 11.577-20.88 10.687-20.618 24.465v-.053c-10.702-8.696-18.677 2.881-32.002 1.153-1.05-.158-1.837.89-1.312 1.781 4.04 6.967 17.575 27.398 37.564 25.093l-.945.681 3.568 3.929c17.47 19.226 38.245 30.751 60.122 33.318 3.148.366 6.296.576 9.443.576 18.31 0 36.515-6.129 52.149-17.759 17.942-13.306 30.376-32.113 35.045-52.91a79.3 79.3 0 0 0 1.941-20.693c3.935-1.572 8.237.157 11.647 2.462.052 0 .052.052.105.052.157.105.262.21.419.262.053 0 .053.053.105.053.42.262.787.576 1.155.838.052.052.157.105.209.157.105.053.158.157.263.21s.157.157.262.209c.052.053.157.105.21.21.157.105.315.262.42.367.052.052.105.104.157.104.105.105.21.21.315.262l.157.157c.105.105.21.158.315.262.052.053.105.053.105.105l.367.367c.053.052.105.052.105.105.262.209.577.261.839.261.315.053.84-.419.787-1.047m-62.798 61.344c.263.158.577.21.997.262-16.159 11.63-35.255 16.816-53.879 14.616-18.467-2.148-36.147-11.577-51.467-27.346.21-.419.42-.785.578-1.205 17.68 10.844 33.313 16.031 46.482 15.402 13.22-.629 23.556-7.124 29.012-18.178 4.564-9.22 5.141-21.059 1.678-32.584-3.515-11.63-10.754-21.846-20.46-28.761-13.221-9.429-26.074-23.574-33.891-37.037l.157-1.31s-3.043-4.662 2.414-5.448c43.754-6.286 132.731 76.694 78.379 121.589"/><path fill="#fff" d="M141.356 72.699c-1.521-2.148-4.564-7.91 4.879-7.91 9.444 0 23.819 10.634 26.757 14.563-.892 2.41-6.978 2.933-10.021 2.724-3.043-.21-8.184-.734-12.171-2.724-3.935-1.886-7.922-4.506-9.444-6.654"/></svg>
